remix/Editor/split-cells-horizontal.svg

<svg viewBox="0 0 24 24" fill="currentColor" xmlns="http://www.w3.org/2000/svg"><path d="M20 3C20.5523 3 21 3.44772 21 4V20C21 20.5523 20.5523 21 20 21H4C3.44772 21 3 20.5523 3 20V4C3 3.44772 3.44772 3 4 3H20ZM11 5H5V19H11V15H13V19H19V5H13V9H11V5ZM15 9L18 12L15 15V13H9V15L6 12L9 9V11H15V9Z"/></svg>

<svg viewBox="0 0 24 24" xmlns="http://www.w3.org/2000/svg"><path fill="none" d="M0 0h24v24H0Z"/><path d="M20 3c.55 0 1 .44 1 1v16c0 .55-.45 1-1 1H4c-.552 0-1-.45-1-1V4c0-.552.44-1 1-1h16Zm-9 2H5v14h6v-4h2v4h6V5h-6v4h-2V5Zm4 4l3 3 -3 3v-2H9v2l-3-3 3-3v2h6V9Z"/></svg>
